X:1
T:Julesne
T:Julesne
T:Jonas Dahl
T:Karl Svensen
C:Karl Svensen
%%score [ 1 2 3 4 ]
L:1/8
Q:1/4=114
M:4/4
K:G
V:1 treble nm="Soprano"
V:2 treble nm="Alto"
V:3 treble-8 nm="Tenor"
V:4 bass nm="Bass"
V:1
"^Moderato" G4 A4 | B2 c2 d2 z2 | A2 B c B2 A2 | G2 B2 A2 z2 | e4 A2 A2 | (d2 c2) B2 z2 | %6
w: Stil- le,|let og lun|da- ler du o- ver|tag og tun|hvi- sken- de|og _ var|
 A2 B c B2 A2 | G4 z4 | F2 A2 G2 F2 | B2 G2 F2 E2 | c4 B2 A2 | G2 F2 E2 z2 | A2 c2 B2 A2 | %13
w: dæk- ker du busk og|bar;|hyl- ler til om|glug og kar- me,|lu- ner om|rod og kræ,|du har mo- der-|
 d2 B2 A2 G2 | e4 A4 | B4 z4 | G2 B2 A2 G2 | F2 E2 c2 A2 | d4 F4 | G4 z4 |] %20
w: hjer- tets var- me|ju- le-|sne!|du har mo- der-|hjer- tets var- me|ju- le-|sne!|
V:2
 B,4 C4 | D2 D2 D2 z2 | E2 E E D2 D2 | D2 D2 D2 z2 | E4 F2 E2 | (D2 EF) G2 z2 | E2 E E D2 C2 | %7
w: Stil- le,|let og lun|da- ler du o- ver|tag og tun|hvi- sken- de|og _ _ var|dæk- ker du busk og|
 B,4 z4 | C2 C2 B,2 B,2 | B,2 E2 ^D2 E2 | ^D4 E2 F2 | E2 ^D2 E2 z2 | E2 E2 =D2 D2 | D2 D2 D2 D2 | %14
w: bar;|hyl- ler til om|glug og kar- me,|lu- ner om|rod og kræ,|du har mo- der-|hjer- tets var- me|
 C4 E4 | ^D4 z4 | =D2 D2 D2 D2 | ^D2 E2 E2 E2 | =D4 D4 | D4 z4 |] %20
w: ju- le-|sne!|du har mo- der-|hjer- tets var- me|ju- le-|sne!|
V:3
 G4 G4 | G2 G2 G2 z2 | G2 G G G2 F2 | G2 G2 F2 z2 | G4 F2 F2 | (B2 A2) G2 z2 | G2 G G G2 F2 | %7
w: Stil- le,|let og lun|da- ler du o- ver|tag og tun|hvi- sken- de|og _ var|dæk- ker du busk og|
 G4 z4 | F2 E2 ^D2 D2 | E2 B2 c2 B2 | A4 B2 c2 | B2 A2 G2 z2 | G2 G2 F2 F2 | G2 G2 G2 G2 | %14
w: bar;|hyl- ler til om|glug og kar- me,|lu- ner om|rod og kræ,|du har mo- der-|hjer- tets var- me|
 G4 (F2 E2) | F4 z4 | G2 G2 G2 G2 | A2 G2 G2 G2 | G4 A4 | B4 z4 |] %20
w: ju- le- *|sne!|du har mo- der-|hjer- tets var- me|ju- le-|sne!|
V:4
 G,,4 G,,4 | G,,2 A,,2 B,,2 z2 | C,2 B,, A,, D,2 C,2 | B,,2 G,,2 D,2 z2 | C,4 D,2 C,2 | %5
w: Stil- le,|let og lun|da- ler du o- ver|tag og tun|hvi- sken- de|
 (B,,2 C,D,) E,2 z2 | C,2 B,, A,, D,2 D,2 | G,,4 z4 | A,,2 F,,2 B,,2 A,,2 | G,,2 G,,2 G,,2 G,,2 | %10
w: og _ _ var|dæk- ker du busk og|bar;|hyl- ler til om|glug og kar- me,|
 F,,4 G,,2 A,,2 | B,,2 B,,2 E,2 z2 | C,2 A,,2 D,2 C,2 | B,,2 G,,2 A,,2 B,,2 | C,4 C,4 | B,,4 z4 | %16
w: lu- ner om|rod og kræ,|du har mo- der-|hjer- tets var- me|ju- le-|sne!|
 B,,2 G,,2 A,,2 B,,2 | C,2 C,2 A,,2 C,2 | B,,4 D,4 | G,,4 z4 |] %20
w: du har mo- der-|hjer- tets var- me|ju- le-|sne!|

